assets/dist/images/landing-pages/event-manager/event-error.svg

<?xml version="1.0" encoding="UTF-8"?>
<svg width="58px" height="58px" viewBox="0 0 58 58" version="1.1" xmlns="http://www.w3.org/2000/svg" xmlns:xlink="http://www.w3.org/1999/xlink">
    <!-- Generator: Sketch 48.2 (47327) - http://www.bohemiancoding.com/sketch -->
    <title>event-error</title>
    <desc>Created with Sketch.</desc>
    <defs></defs>
    <g id="Event-Manager" stroke="none" stroke-width="1" fill="none" fill-rule="evenodd">
        <g id="event-error" fill="#F47B6E" fill-rule="nonzero">
            <path d="M41.8736367,26.0253971 C42.269086,25.8070331 41.7034469,24.5422725 40.6362731,24.7880956 L33.212091,24.7880956 L36.924182,12.4150809 C36.7706528,11.5232947 35.1567238,10.6049319 34.4494547,11.1777794 L17.1263633,30.9746029 C16.730914,31.1929669 17.2965531,32.4577275 18.3637269,32.2119044 L25.787909,32.2119044 L22.075818,44.5849191 C22.2293472,45.4767053 23.8432762,46.3950681 24.5505453,45.8222206 L41.8736367,26.0253971 Z" id="Shape" opacity="0.399003623"></path>
            <path d="M41.0012799,42.4154934 C37.8165878,45.2664142 33.6107442,47 29,47 C28.4867008,47 27.9784198,46.9785145 27.4760072,46.9363939 L29.0126449,44.9999951 C33.0661165,44.9968601 36.7668522,43.4863952 39.5846195,40.9988331 L17.0011669,18.4153805 C14.5110184,21.2360775 13,24.9415801 13,29 C13,34.3728005 15.6482394,39.1270716 19.7106144,42.0287096 L19.1071707,44.0400874 C14.2231526,40.8210573 11,35.2869325 11,29 C11,24.3892558 12.7335858,20.1834122 15.5845066,16.9987201 L15.5649712,16.9791847 L16.9791847,15.5649712 L16.9987201,15.5845066 C20.1834122,12.7335858 24.3892558,11 29,11 C29.5256591,11 30.0460555,11.0225326 30.5602759,11.0666847 L28.868074,13.0005326 C24.8613054,13.0328918 21.2054846,14.5380262 18.4153805,17.0011669 L40.9988331,39.5846195 C43.4889816,36.7639225 45,33.0584199 45,29 C45,23.8835258 42.5984182,19.327971 38.8610206,16.3991018 L39.4731275,14.3588481 C44.0305365,17.6246648 47,22.9655547 47,29 C47,33.6107442 45.2664142,37.8165878 42.4154934,41.0012799 L42.4350288,41.0208153 L41.0208153,42.4350288 L41.0012799,42.4154934 Z" id="Combined-Shape"></path>
        </g>
    </g>
</svg>

<svg width="58" height="58" viewBox="0 0 58 58" xmlns="http://www.w3.org/2000/svg"><g fill="#F47B6E"><path d="M41.874 26.025c.395-.218-.17-1.483-1.238-1.237h-7.424l3.712-12.373c-.153-.892-1.767-1.81-2.475-1.237L17.126 30.975c-.395.218.17 1.483 1.238 1.237h7.424l-3.712 12.373c.153.892 1.767 1.81 2.475 1.237l17.323-19.797z" opacity=".399"/><path d="M41.001 42.415A17.933 17.933 0 0129 47a18.24 18.24 0 01-1.524-.064L29.013 45a15.94 15.94 0 0010.572-4.001L17 18.415A15.94 15.94 0 0013 29c0 5.373 2.648 10.127 6.71 13.029l-.603 2.011C14.223 40.821 11 35.287 11 29c0-4.61 1.734-8.817 4.585-12.001l-.02-.02 1.414-1.414.02.02A17.933 17.933 0 0129 11c.526 0 1.046.023 1.56.067L28.868 13a15.938 15.938 0 00-10.453 4L41 39.585A15.94 15.94 0 0045 29c0-5.116-2.402-9.672-6.139-12.6l.612-2.041C44.031 17.625 47 22.966 47 29c0 4.61-1.734 8.817-4.585 12.001l.02.02-1.414 1.414-.02-.02z"/></g></svg>
